icons/modus-outlined/alarm-on.svg

<svg xmlns="http://www.w3.org/2000/svg" width="24" height="24" fill="currentColor" viewBox="0 0 24 24">
  <path d="M14.805 10.08L10.695 14.19L9.15503 12.65C8.86503 12.36 8.38503 12.36 8.09503 12.65C7.80503 12.94 7.80503 13.42 8.09503 13.71L10.165 15.78C10.315 15.93 10.505 16 10.695 16C10.885 16 11.075 15.93 11.225 15.78L15.865 11.14C16.155 10.85 16.155 10.37 15.865 10.08C15.575 9.79 15.095 9.79 14.805 10.08ZM7.11503 4.97C7.20761 4.87742 7.28105 4.76751 7.33116 4.64654C7.38126 4.52558 7.40705 4.39593 7.40705 4.265C7.40705 4.13407 7.38126 4.00442 7.33116 3.88346C7.28105 3.76249 7.20761 3.65258 7.11503 3.56C7.02245 3.46742 6.91254 3.39398 6.79157 3.34387C6.67061 3.29377 6.54096 3.26798 6.41003 3.26798C6.2791 3.26798 6.14945 3.29377 6.02849 3.34387C5.90752 3.39398 5.79761 3.46742 5.70503 3.56L2.87503 6.39C2.78245 6.48258 2.70901 6.59249 2.6589 6.71346C2.6088 6.83442 2.58301 6.96407 2.58301 7.095C2.58301 7.22593 2.6088 7.35558 2.6589 7.47654C2.70901 7.59751 2.78245 7.70742 2.87503 7.8C2.96761 7.89258 3.07752 7.96602 3.19849 8.01613C3.31945 8.06623 3.4491 8.09202 3.58003 8.09202C3.71096 8.09202 3.84061 8.06623 3.96157 8.01613C4.08254 7.96602 4.19245 7.89258 4.28503 7.8L7.11503 4.97ZM11.975 4.75C7.55503 4.75 3.97503 8.33 3.97503 12.75C3.97503 17.17 7.55503 20.75 11.975 20.75C16.395 20.75 19.975 17.17 19.975 12.75C19.975 8.33 16.395 4.75 11.975 4.75ZM11.975 18.75C8.66503 18.75 5.97503 16.06 5.97503 12.75C5.97503 9.44 8.66503 6.75 11.975 6.75C15.285 6.75 17.975 9.44 17.975 12.75C17.975 16.06 15.285 18.75 11.975 18.75ZM21.195 6.38L18.365 3.55C18.2724 3.45742 18.1625 3.38398 18.0416 3.33387C17.9206 3.28377 17.791 3.25798 17.66 3.25798C17.5291 3.25798 17.3994 3.28377 17.2785 3.33387C17.1575 3.38398 17.0476 3.45742 16.955 3.55C16.8624 3.64258 16.789 3.75249 16.7389 3.87346C16.6888 3.99442 16.663 4.12407 16.663 4.255C16.663 4.38593 16.6888 4.51558 16.7389 4.63654C16.789 4.75751 16.8624 4.86742 16.955 4.96L19.785 7.79C19.8776 7.88258 19.9875 7.95602 20.1085 8.00613C20.2294 8.05623 20.3591 8.08202 20.49 8.08202C20.621 8.08202 20.7506 8.05623 20.8716 8.00613C20.9925 7.95602 21.1024 7.88258 21.195 7.79C21.2876 7.69742 21.3611 7.58751 21.4112 7.46654C21.4613 7.34558 21.487 7.21593 21.487 7.085C21.487 6.95407 21.4613 6.82442 21.4112 6.70346C21.3611 6.58249 21.2876 6.47258 21.195 6.38Z"/>
</svg>

<svg xmlns="http://www.w3.org/2000/svg" width="24" height="24" fill="currentColor" viewBox="0 0 24 24">
  <path d="m14.805 10.08-4.11 4.11-1.54-1.54a.754.754 0 0 0-1.06 0c-.29.29-.29.77 0 1.06l2.07 2.07c.15.15.34.22.53.22s.38-.07.53-.22l4.64-4.64c.29-.29.29-.77 0-1.06a.754.754 0 0 0-1.06 0m-7.69-5.11a.997.997 0 0 0-1.41-1.41l-2.83 2.83a.997.997 0 0 0 1.41 1.41zm4.86-.22c-4.42 0-8 3.58-8 8s3.58 8 8 8 8-3.58 8-8-3.58-8-8-8m0 14c-3.31 0-6-2.69-6-6s2.69-6 6-6 6 2.69 6 6-2.69 6-6 6m9.22-12.37-2.83-2.83a.998.998 0 0 0-1.41 1.41l2.83 2.83a.997.997 0 0 0 1.41-1.41"/>
</svg>
